X: 29055
T: Neil Gow's Lamentation For James Moray Esq. Of Abercairny
R: strathspey
M: 4/4
K: Gmajor
|:B,A,|G,3 B, D2 D<G|E2 E<G D2 G2|A3 B c>BA<G|E4 E2 FG|
G,3 B, D2 D<G|E2 E<G D2 g<e|d2 G2 d>cB<A|G4 G2:|
e2|d2 e<f g2 d2|e2 d2 g2 B2|c2 ac B2 g<B|A4- A2 B2|
G,3 B, D2 D<G|E2 E<G D2 g<e|d2 G2 d>cB<A|G4 G2 e2|
d2 ef g2 d2|e2 d2 g2 B2|c>Bc<a B>AB<g|A4- A2 (3Bcd|
e>dc<B d>cB<A|c>BA<G B>AG<F|A>GF<E D>ED<B,|G,4- G,2||

